build/images/g4.svg

<svg width="138" height="138" viewBox="0 0 138 138" fill="none" xmlns="http://www.w3.org/2000/svg">
<circle cx="69" cy="69" r="69" fill="#76BD5E"/>
<path d="M94.1094 50.7031H84.7344V44.4531C84.7344 40.9844 81.9531 38.2031 78.4844 38.2031H59.7344C56.2656 38.2031 53.4844 40.9844 53.4844 44.4531V50.7031H44.1094C40.6406 50.7031 37.8594 53.4844 37.8594 56.9531V91.3281C37.8594 94.7969 40.6406 97.5781 44.1094 97.5781H94.1094C97.5781 97.5781 100.359 94.7969 100.359 91.3281V56.9531C100.359 53.4844 97.5781 50.7031 94.1094 50.7031ZM59.7344 44.4531H78.4844V50.7031H59.7344V44.4531ZM94.1094 91.3281H44.1094V85.0781H94.1094V91.3281ZM94.1094 75.7031H44.1094V56.9531H53.4844V63.2031H59.7344V56.9531H78.4844V63.2031H84.7344V56.9531H94.1094V75.7031Z" fill="white"/>
</svg>

<svg width="138" height="138" fill="none" xmlns="http://www.w3.org/2000/svg"><circle cx="69" cy="69" r="69" fill="#76BD5E"/><path d="M94.11 50.703h-9.376v-6.25a6.228 6.228 0 00-6.25-6.25h-18.75a6.228 6.228 0 00-6.25 6.25v6.25H44.11a6.228 6.228 0 00-6.25 6.25v34.375a6.228 6.228 0 006.25 6.25h50a6.228 6.228 0 006.25-6.25V56.953c0-3.469-2.78-6.25-6.25-6.25zm-34.376-6.25h18.75v6.25h-18.75v-6.25zM94.11 91.328h-50v-6.25h50v6.25zm0-15.625h-50v-18.75h9.375v6.25h6.25v-6.25h18.75v6.25h6.25v-6.25h9.375v18.75z" fill="#fff"/></svg>
